dist/intermediate-svg/applications-site.svg

<?xml version="1.0" encoding="utf-8"?><svg width="24" height="23.04" fill="none" xmlns="http://www.w3.org/2000/svg" viewBox="0 0 25 24"><path stroke="#333" stroke-linejoin="round" d="M11.02 16H13.02V19H11.02z"/><rect x="3.52" y="4.5" width="17" height="11" rx=".5" stroke="#333" stroke-linejoin="round"/><path d="M5.02002 6.00012L7.02002 8.00012M7.02002 6.00012L5.02002 8.00012M9.02 6H19.02V14H9.02zM5.02 10H7.02V14H5.02z" stroke="#0094FF"/></svg>

<?xml version="1.0" encoding="utf-8"?><svg width="24" height="23.04" fill="none" xmlns="http://www.w3.org/2000/svg" viewBox="0 0 25 24"><path stroke="#333" stroke-linejoin="round" d="M11.02 16h2v3h-2z"/><rect x="3.52" y="4.5" width="17" height="11" rx=".5" stroke="#333" stroke-linejoin="round"/><path d="M5.02 6l2 2M7.02 6l-2 2M9.02 6h10v8h-10zM5.02 10h2v4h-2z" stroke="#0094FF"/></svg>
